src/assets/images/redbook.svg

<svg fill="none" height="54" viewBox="0 0 54 54" width="54" xmlns="http://www.w3.org/2000/svg"><path clip-rule="evenodd" d="m40.8758 28.4093h-3.531v-3.6741h3.4204c.0605-.2168.0727-2.5377.017-2.8742h-2.1994c-.0709-.2141-.0849-3.2871-.0199-3.6207h1.0991 1.1393l.0955-1.213c.0271-.0036.0526-.0077.0769-.0117.0496-.0082.0945-.0156.1394-.0156l.2186.0006c.8732.0024 1.7466.0048 2.6198.0127.3962.0037.535.1385.5575.5357.0081.1421.0062.2847.0041.4369v.0001.0003.0004.0003.0004.0004c-.001.071-.002.1441-.002.2202l.1278.0002c.0849.0002.1611.0004.2374-.0005.6459-.0074 1.2923-.0127 1.9252.1446 1.6116.4007 2.5807 1.4229 2.9273 3.0417.1135.5301.1108 1.0674.1081 1.6043-.0006.1173-.0012.2345-.0006.3517.0015.2944.0011.5889.0008.8908v.0003.0003.0003.0003.0003l-.0003.3993c.0895.0145.1775.0275.2644.0403.19.028.3746.0553.5561.0955.0899.0199.1802.0387.2707.0575h.0001.0001v.0001h.0001.0001c.3255.0677.6521.1357.9589.2532 1.329.5087 2.041 1.5089 2.0773 2.9174.0449 1.7321.0497 3.4674-.0008 5.1992-.0371 1.2751-.7162 2.1858-1.9 2.6664-1.1021.4474-2.232.4487-3.3381.0056-1.1063-.4435-1.7267-1.2783-1.8552-2.4693-.0066-.0613-.0058-.1237-.0047-.1855.0005-.028.0038-.0559.008-.0915.0023-.0194.0048-.041.0073-.0661.3841-.0258.7666-.0223 1.1485-.0188.1804.0016.3607.0032.5409.0018.3918-.0033.7837-.0025 1.1822-.0018.176.0004.3534.0007.5326.0007.0015-.0102.0031-.0203.0047-.0301l.0042-.024.0038-.021c.0089-.0487.0169-.0931.0168-.1377-.0004-.3702-.0022-.7404-.004-1.1105v-.0001-.0001-.0001-.0001c-.0037-.7617-.0074-1.5233.0016-2.2848.0071-.6037-.3657-.9816-.9556-1.0097-.4679-.0223-.937-.0263-1.4054-.0276-.8209-.002-1.6419-.0003-2.4628.0015h-.0005-.0005-.0005-.0005-.0005l-.7186.0014c-.0446 0-.0893.0031-.1424.0068-.0291.0021-.0607.0043-.0962.0062v7.6825h-3.6531zm5.3767-3.7086c.0021-.0238.0046-.0462.0069-.0676.0048-.0447.0092-.0849.0095-.1253l.0005-.0759c.0025-.4338.005-.8676.0035-1.3013v-.0003c-.0008-.2117-.0016-.4242-.0196-.6348-.026-.303-.2712-.5748-.5666-.618-.3471-.051-.6956-.0306-1.0539-.0096l-.088.0051v2.8277zm-21.416 11.4348c.0241-.0487.0458-.0935.0662-.1355l.0001-.0001v-.0002l.0001-.0001c.0403-.0832.0754-.1557.1138-.2264l.0331-.0606c.3274-.6009.6546-1.2014.8559-1.8614.0355-.1166.095-.2269.1534-.3354l.0135-.025c.3906-.7255 1.018-1.1358 1.9799-1.032.6186.0666 1.2329.0907 1.8521.0629.047-.0022.0939-.0054.1483-.0091l.0862-.0058c.0046-.0293.0097-.0583.0148-.0871.0116-.0657.023-.1304.0269-.1955.0093-.1587.0119-.3182.0119-.4774.0004-.9723.0003-1.9445.0003-2.9168-.0001-1.3362-.0001-2.6724.0008-4.0085.0003-.3934.0027-.7868.0051-1.1802.0022-.3671.0045-.7343.005-1.1015.0008-.561-.1497-.7032-.7091-.7027-.3091.0003-.6188-.0013-.9272-.0215-.4859-.0316-.6984-.2226-.7141-.712-.0212-.6606-.0248-1.3217-.0284-1.9828v-.0001-.0001c-.0014-.2582-.0028-.5165-.0053-.7747-.0002-.0114.0049-.0228.01-.0343.0022-.005.0044-.01.0062-.015.1797-.0589 7.9608-.0791 8.3252-.0191.0024.0165.0056.0335.0088.0508v.0001c.0073.0394.015.0804.0148.1215-.0005.301-.0023.602-.0042.9031v.0001.0001c-.004.6364-.0079 1.2728.0018 1.9089.0066.4362-.241.5509-.539.5748-.2092.0167-.4199.0166-.6305.0164-.0992 0-.1984-.0001-.2975.0016l-.0824.0012c-.1052.0014-.2105.0027-.3151.0118-.307.0268-.4978.2325-.4997.5398-.0045.7783-.0071 1.5566-.0077 2.3349-.0015 1.7642-.0023 3.5282-.0032 5.2923v.0293l-.001 2.1345v.3206h.3083l.7807-.0003c.6508-.0003 1.3016-.0006 1.9524.0011.4771.0013.5397.0634.5408.5318.0019.9375.0011 1.8751 0 2.8126 0 .0578-.0038.1155-.0078.1767v.0002c-.002.0304-.0041.0617-.0057.0943-4.1759-.0002-8.3305-.0002-12.5385-.0002zm-17.80341-3.0062h-2.29597c.00322.0542.0059.1049.00845.1533l.00001.0001c.00566.1072.01071.203.01967.2986.10907 1.2.88793 2.1701 2.00115 2.4835.51879.146 1.04821.1675 1.57629.0661 1.01849-.1956 1.73131-.7775 2.09321-1.7509.1186-.3192.1953-.665.2248-1.0041.0472-.5448.0523-1.0947.0528-1.6424.0031-4.322.0023-8.644.0016-12.966l-.0003-1.4396c0-.0556-.0042-.1113-.009-.1756-.0026-.0341-.0053-.0707-.0077-.111-.4089.0007-.81542.0002-1.2215-.0002-.81158-.0008-1.62123-.0016-2.44351.0058zm19.32501-4.6333-.0001.0001c-.0156.046-.0281.0827-.0454.1169-.1347.2647-.2701.5291-.4055.7934-.2835.5536-.567 1.1072-.8439 1.6639-.1046.2102-.2564.3044-.4785.3097-.0945.0023-.1891.005-.2837.0077-.2589.0074-.5177.0149-.7764.0133-.7866-.0045-1.5734-.0133-2.3597-.0313-.1653-.0037-.3346-.0385-.4933-.0876-.6382-.1964-.9423-.6958-.812-1.3494.0446-.2232.1197-.445.2136-.6525.3811-.8423.7676-1.6821 1.1541-2.5219l.0003-.0006.0018-.0038.0017-.0038.0017-.0038c.1472-.3198.2945-.6397.4414-.9597.033-.0718.0643-.1443.0999-.2267l.0003-.0007c.0187-.0431.0385-.089.0603-.1388-.0525 0-.1001.0002-.1442.0005-.0889.0005-.1641.0009-.2392-.0011l-.3574-.0085h-.0002c-.437-.0103-.874-.0206-1.3108-.0382-.121-.0047-.2436-.044-.3599-.0838-.6419-.2205-.9354-.7332-.7825-1.3943.0512-.2215.1364-.4394.2346-.6453.6932-1.4534 1.3914-2.9045 2.0897-4.3558l.0002-.0003.0001-.0003.0003-.0005.2836-.5896c.1494-.3105.3004-.6202.4557-.9278.1061-.2104.26-.3457.5177-.3449.703.0023 1.406.0009 2.109-.0005.3402-.0007.6804-.0014 1.0205-.0017.0168 0 .0335.0035.0534.0076.0108.0022.0226.0046.0358.0068.017.0945-.0272.1693-.0702.2421-.0133.0226-.0266.045-.0378.0678-.3684.7439-.7385 1.4868-1.1086 2.2298l-.0001.0002-.0001.0003-.0002.0003c-.2128.4273-.4257.8546-.6382 1.2821-.0434.0874-.0849.1758-.1264.2642v.0001l-.0001.0001-.0001.0002c-.0598.1276-.1196.2551-.1852.3795-.1301.2462-.1237.4896-.0202.747.0088-.0043.0183-.0078.0273-.011.018-.0066.0344-.0125.0412-.024.2115-.3663.5464-.4735.9444-.4674.4554.0071.9108.0085 1.3661.0098l.3312.0011c.2386.0009.4773.0007.7159.0005h.0003l.3182-.0002h.3097c-.0171.0417-.0319.0791-.0454.1137-.0267.0677-.0489.1241-.0756.1782-.6305 1.2751-1.2624 2.5497-1.8942 3.8242-.0805.1625-.1613.3248-.242.4871l-.0004.0008-.0002.0003-.0001.0003-.0001.0002c-.1827.3672-.3654.7343-.5453 1.1027-.0656.1346-.1258.2739-.1675.4172-.0642.2211.0008.3421.2203.4004.1348.0361.2783.0475.4185.0534.2139.0086.4278.014.6418.0193h.0001.0002c.1658.0041.3316.0082.4973.0139.0555.0017.1109.0112.1729.0218.0308.0053.0632.0108.0981.0158-.0112.0304-.0203.0572-.0285.0815zm-21.61701-6.4113.0254-.3266-.12158.0001h-.0004c-.06537 0-.12083.0001-.17629-.0001l-.71582-.002h-.00062-.00063c-.71613-.0021-1.43233-.0042-2.14839-.0054l-.01193-.0001h-.00001c-.08428-.0002-.17001-.0005-.25236.0144-.22238.0409-.364886.1691-.400976.3999-.01088.0701-.021761.1401-.027599.2105l-.027404.3308h-.000001v.0001c-.033955.4087-.067909.8173-.097583 1.2265l-.023417.3226c-.065838.9065-.131679 1.813-.188613 2.7199-.072711 1.158-.182574 2.3095-.5469258 3.42-.0453781.138-.029456.2577.0339672.3816l.0920556.1798.000186.0004.000218.0004c.569461 1.1122 1.138962 2.2245 1.704882 3.3385.07271.143.16055.2277.34551.1789l.19736-.3774c.16532-.3159.33196-.6343.49711-.9535.37842-.7313.71623-1.4786.92959-2.2784.28421-1.0652.38266-2.1561.46944-3.2495.09092-1.1428.18345-2.2855.27598-3.4283l.00001-.0001.00007-.0009.00014-.0017.00014-.0018c.04293-.5301.08585-1.0602.12861-1.5903.01335-.1655.02617-.3311.03985-.5078zm8.24061-.3005h.0001c.0383-.006.0722-.0113.1061-.0111.3138.0018.6276.0044.9415.007.7202.006 1.4403.0119 2.1604.0079.242-.0013.3736.1024.4209.3113.0522.2311.0817.4689.1011.7056.1236 1.5235.2425 3.0475.3611 4.5715.017.2178.0322.4358.0474.6538v.0005c.026.3725.052.7451.0867 1.1168.0185.199.0589.4052.1371.5875.185.4304.1972.8558.034 1.2891-.0528.1402-.1146.2779-.1812.4119-.448.9005-.8979 1.8003-1.3477 2.6998l-.0008.0017-.0718.1435c-.0246.049-.0509.0971-.0797.1498-.0161.0293-.0329.06-.0506.093-.0202-.0212-.0381-.0393-.0543-.0555-.0293-.0296-.0527-.0531-.0731-.079-.8855-1.1292-1.4651-2.3843-1.6245-3.8264-.0978-.8841-.2056-1.7671-.3135-2.6501-.086-.7041-.172-1.4083-.2528-2.113-.108-.9402-.2072-1.8813-.3064-2.8225v-.0001l-.0001-.001c-.0378-.3588-.0756-.7175-.1139-1.0762-.002-.0163.0005-.033.0043-.0576.0021-.0135.0046-.0295.0069-.0491.0225-.0028.0432-.006.0628-.0091zm11.9689 10.7438c.0093-.0241.0191-.0498.0304-.0775-.0328-.0025-.0624-.0054-.0901-.0081-.0506-.005-.0944-.0092-.1383-.0094-.5125-.0003-1.0249-.0003-1.5373-.0003-1.2297.0001-2.4595.0002-3.6892-.0045-.178-.0008-.2651.0632-.3436.2174-.3585.7043-.7222 1.4059-1.0859 2.1075-.157.3028-.314.6056-.4705.9086-.023.0447-.0424.0913-.066.1483-.0125.0303-.0263.0637-.0426.1012.0577.0157.1132.0343.1672.0524.113.0378.2197.0735.3272.0766.8303.0236 1.6606.0431 2.4909.0625.7429.0174 1.4859.0349 2.2287.0553.2577.0071.4076-.0964.5215-.3193.3617-.7083.7278-1.4145 1.0938-2.1207.183-.3532.366-.7063.5485-1.0597.0206-.0398.0367-.0819.0553-.1303z" fill="#000" fill-rule="evenodd"/></svg>

<svg width="54" height="54" viewBox="0 0 54 54" fill="none" xmlns="http://www.w3.org/2000/svg">
<path fill-rule="evenodd" clip-rule="evenodd" d="M40.8758 28.4093H37.3448V24.7352H40.7652C40.8257 24.5184 40.8379 22.1975 40.7822 21.861H38.5828C38.5119 21.6469 38.4979 18.5739 38.5629 18.2403H39.662H40.8013L40.8968 17.0273C40.9239 17.0237 40.9494 17.0196 40.9737 17.0156L40.9737 17.0156C41.0233 17.0074 41.0682 17 41.1131 17L41.3317 17.0006C42.2049 17.003 43.0783 17.0054 43.9515 17.0133C44.3477 17.017 44.4865 17.1518 44.509 17.549C44.5171 17.6911 44.5152 17.8337 44.5131 17.9859V17.9859V17.9859V17.9859V17.9859V17.986V17.9863V17.9867V17.987V17.9874V17.9878C44.5121 18.0588 44.5111 18.1319 44.5111 18.208L44.6389 18.2082C44.7238 18.2084 44.8 18.2086 44.8763 18.2077C45.5222 18.2003 46.1686 18.195 46.8015 18.3523C48.4131 18.753 49.3822 19.7752 49.7288 21.394C49.8423 21.9241 49.8396 22.4614 49.8369 22.9983C49.8363 23.1156 49.8357 23.2328 49.8363 23.35C49.8378 23.6444 49.8374 23.9389 49.8371 24.2408V24.2411V24.2414V24.2417V24.242V24.2423L49.8368 24.6416C49.9263 24.6561 50.0143 24.6691 50.1012 24.6819C50.2912 24.7099 50.4758 24.7372 50.6573 24.7774C50.7472 24.7973 50.8375 24.8161 50.928 24.8349L50.9281 24.8349L50.9282 24.8349L50.9282 24.835L50.9283 24.835L50.9284 24.835C51.2539 24.9027 51.5805 24.9707 51.8873 25.0882C53.2163 25.5969 53.9283 26.5971 53.9646 28.0056C54.0095 29.7377 54.0143 31.473 53.9638 33.2048C53.9267 34.4799 53.2476 35.3906 52.0638 35.8712C50.9617 36.3186 49.8318 36.3199 48.7257 35.8768C47.6194 35.4333 46.999 34.5985 46.8705 33.4075C46.8639 33.3462 46.8647 33.2838 46.8658 33.222C46.8663 33.194 46.8696 33.1661 46.8738 33.1305C46.8761 33.1111 46.8786 33.0895 46.8811 33.0644C47.2652 33.0386 47.6477 33.0421 48.0296 33.0456H48.0296C48.21 33.0472 48.3903 33.0488 48.5705 33.0474C48.9623 33.0441 49.3542 33.0449 49.7527 33.0456C49.9287 33.046 50.1061 33.0463 50.2853 33.0463C50.2868 33.0361 50.2884 33.026 50.29 33.0162L50.2942 32.9922L50.298 32.9712C50.3069 32.9225 50.3149 32.8781 50.3148 32.8335C50.3144 32.4633 50.3126 32.0931 50.3108 31.723V31.7229V31.7228V31.7228V31.7227V31.7226C50.3071 30.9609 50.3034 30.1993 50.3124 29.4378C50.3195 28.8341 49.9467 28.4562 49.3568 28.4281C48.8889 28.4058 48.4198 28.4018 47.9514 28.4005C47.1305 28.3985 46.3095 28.4002 45.4886 28.402H45.4881H45.4876H45.4871H45.4866H45.4861L44.7675 28.4034C44.7229 28.4034 44.6782 28.4065 44.6251 28.4102C44.596 28.4123 44.5644 28.4145 44.5289 28.4164V36.0989H40.8758V28.4093ZM46.2525 24.7007C46.2546 24.6769 46.2571 24.6545 46.2594 24.6331C46.2642 24.5884 46.2686 24.5482 46.2689 24.5078L46.2694 24.4319C46.2719 23.9981 46.2744 23.5643 46.2729 23.1306V23.1303C46.2721 22.9186 46.2713 22.7061 46.2533 22.4955C46.2273 22.1925 45.9821 21.9207 45.6867 21.8775C45.3396 21.8265 44.9911 21.8469 44.6328 21.8679L44.5448 21.873V24.7007H46.2525ZM24.8365 36.1355C24.8606 36.0868 24.8823 36.042 24.9027 36L24.9028 35.9999L24.9028 35.9997L24.9029 35.9996C24.9432 35.9164 24.9783 35.8439 25.0167 35.7732L25.0498 35.7126C25.3772 35.1117 25.7044 34.5112 25.9057 33.8512C25.9412 33.7346 26.0007 33.6243 26.0591 33.5158L26.0726 33.4908C26.4632 32.7653 27.0906 32.355 28.0525 32.4588C28.6711 32.5254 29.2854 32.5495 29.9046 32.5217C29.9516 32.5195 29.9985 32.5163 30.0529 32.5126L30.1391 32.5068C30.1437 32.4775 30.1488 32.4485 30.1539 32.4197C30.1655 32.354 30.1769 32.2893 30.1808 32.2242C30.1901 32.0655 30.1927 31.906 30.1927 31.7468C30.1931 30.7745 30.193 29.8023 30.193 28.83C30.1929 27.4938 30.1929 26.1576 30.1938 24.8215C30.1941 24.4281 30.1965 24.0347 30.1989 23.6413C30.2011 23.2742 30.2034 22.907 30.2039 22.5398C30.2047 21.9788 30.0542 21.8366 29.4948 21.8371C29.1857 21.8374 28.876 21.8358 28.5676 21.8156C28.0817 21.784 27.8692 21.593 27.8535 21.1036C27.8323 20.443 27.8287 19.7819 27.8251 19.1208V19.1207V19.1207V19.1207V19.1207V19.1206C27.8237 18.8624 27.8223 18.6041 27.8198 18.3459C27.8196 18.3345 27.8247 18.3231 27.8298 18.3116C27.832 18.3066 27.8342 18.3016 27.836 18.2966C28.0157 18.2377 35.7968 18.2175 36.1612 18.2775C36.1636 18.294 36.1668 18.311 36.17 18.3283L36.17 18.3284C36.1773 18.3678 36.185 18.4088 36.1848 18.4499C36.1843 18.7509 36.1825 19.0519 36.1806 19.353V19.353V19.3531V19.3531V19.3531V19.3532C36.1766 19.9896 36.1727 20.626 36.1824 21.2621C36.189 21.6983 35.9414 21.813 35.6434 21.8369C35.4342 21.8536 35.2235 21.8535 35.0129 21.8533C34.9137 21.8533 34.8145 21.8532 34.7154 21.8549L34.633 21.8561C34.5278 21.8575 34.4225 21.8588 34.3179 21.8679C34.0109 21.8947 33.8201 22.1004 33.8182 22.4077C33.8137 23.186 33.8111 23.9643 33.8105 24.7426C33.809 26.5068 33.8082 28.2708 33.8073 30.0349L33.8073 30.0642L33.8063 32.1987V32.5193H34.1146L34.8953 32.519C35.5461 32.5187 36.1969 32.5184 36.8477 32.5201C37.3248 32.5214 37.3874 32.5835 37.3885 33.0519C37.3904 33.9894 37.3896 34.927 37.3885 35.8645C37.3885 35.9223 37.3847 35.98 37.3807 36.0412L37.3807 36.0414C37.3787 36.0718 37.3766 36.1031 37.375 36.1357C33.1991 36.1355 29.0445 36.1355 24.8365 36.1355ZM7.03309 33.1293H4.73712C4.74034 33.1835 4.74302 33.2342 4.74557 33.2826L4.74558 33.2827C4.75124 33.3899 4.75629 33.4857 4.76525 33.5813C4.87432 34.7813 5.65318 35.7514 6.7664 36.0648C7.28519 36.2108 7.81461 36.2323 8.34269 36.1309C9.36118 35.9353 10.074 35.3534 10.4359 34.38C10.5545 34.0608 10.6312 33.715 10.6607 33.3759C10.7079 32.8311 10.713 32.2812 10.7135 31.7335C10.7166 27.4115 10.7158 23.0895 10.7151 18.7675L10.7148 17.3279C10.7148 17.2723 10.7106 17.2166 10.7058 17.1523C10.7032 17.1182 10.7005 17.0816 10.6981 17.0413C10.2892 17.042 9.88268 17.0415 9.4766 17.0411C8.66502 17.0403 7.85537 17.0395 7.03309 17.0469V33.1293ZM26.3581 28.496L26.3581 28.496L26.358 28.4961L26.358 28.4961L26.358 28.4961C26.3424 28.5421 26.3299 28.5788 26.3126 28.613C26.1779 28.8777 26.0425 29.1421 25.9071 29.4064C25.6236 29.96 25.3401 30.5136 25.0632 31.0703C24.9586 31.2805 24.8068 31.3747 24.5847 31.38C24.4902 31.3823 24.3956 31.385 24.301 31.3877C24.0421 31.3951 23.7833 31.4026 23.5246 31.401C22.738 31.3965 21.9512 31.3877 21.1649 31.3697C20.9996 31.366 20.8303 31.3312 20.6716 31.2821C20.0334 31.0857 19.7293 30.5863 19.8596 29.9327C19.9042 29.7095 19.9793 29.4877 20.0732 29.2802C20.4543 28.4379 20.8408 27.5981 21.2273 26.7583L21.2276 26.7577L21.2294 26.7539L21.2311 26.7501L21.2328 26.7463C21.38 26.4265 21.5273 26.1066 21.6742 25.7866C21.7072 25.7148 21.7385 25.6423 21.7741 25.5599L21.7744 25.5592C21.7931 25.5161 21.8129 25.4702 21.8347 25.4204C21.7822 25.4204 21.7346 25.4206 21.6905 25.4209C21.6016 25.4214 21.5264 25.4218 21.4513 25.4198L21.0939 25.4113L21.0937 25.4113H21.0937H21.0937C20.6567 25.401 20.2197 25.3907 19.7829 25.3731C19.6619 25.3684 19.5393 25.3291 19.423 25.2893C18.7811 25.0688 18.4876 24.5561 18.6405 23.895C18.6917 23.6735 18.7769 23.4556 18.8751 23.2497C19.5683 21.7963 20.2665 20.3452 20.9648 18.8939L20.965 18.8936L20.9651 18.8933L20.9654 18.8928L21.249 18.3032C21.3984 17.9927 21.5494 17.683 21.7047 17.3754C21.8108 17.165 21.9647 17.0297 22.2224 17.0305C22.9254 17.0328 23.6284 17.0314 24.3314 17.03C24.6716 17.0293 25.0118 17.0286 25.3519 17.0283C25.3687 17.0283 25.3854 17.0318 25.4053 17.0359L25.4053 17.0359C25.4161 17.0381 25.4279 17.0405 25.4411 17.0427C25.4581 17.1372 25.4139 17.212 25.3709 17.2848L25.3709 17.2848C25.3576 17.3074 25.3443 17.3298 25.3331 17.3526C24.9647 18.0965 24.5946 18.8394 24.2245 19.5824L24.2244 19.5826L24.2243 19.5829L24.2241 19.5832C24.0113 20.0105 23.7984 20.4378 23.5859 20.8653C23.5425 20.9527 23.501 21.0411 23.4595 21.1295L23.4595 21.1296L23.4594 21.1297L23.4593 21.1299C23.3995 21.2575 23.3397 21.385 23.2741 21.5094C23.144 21.7556 23.1504 21.999 23.2539 22.2564C23.2627 22.2521 23.2722 22.2486 23.2812 22.2454C23.2992 22.2388 23.3156 22.2329 23.3224 22.2214C23.5339 21.8551 23.8688 21.7479 24.2668 21.754C24.7222 21.7611 25.1776 21.7625 25.6329 21.7638L25.9641 21.7649C26.2027 21.7658 26.4414 21.7656 26.68 21.7654H26.6803L26.9985 21.7652H27.3082C27.2911 21.8069 27.2763 21.8443 27.2628 21.8789C27.2361 21.9466 27.2139 22.003 27.1872 22.0571C26.5567 23.3322 25.9248 24.6068 25.293 25.8813C25.2125 26.0438 25.1317 26.2061 25.051 26.3684L25.0506 26.3692L25.0504 26.3695L25.0503 26.3698L25.0502 26.37C24.8675 26.7372 24.6848 27.1043 24.5049 27.4727C24.4393 27.6073 24.3791 27.7466 24.3374 27.8899C24.2732 28.111 24.3382 28.232 24.5577 28.2903C24.6925 28.3264 24.836 28.3378 24.9762 28.3437C25.1901 28.3523 25.404 28.3577 25.618 28.363H25.6181L25.6183 28.363C25.7841 28.3671 25.9499 28.3712 26.1156 28.3769C26.1711 28.3786 26.2265 28.3881 26.2885 28.3987C26.3193 28.404 26.3517 28.4095 26.3866 28.4145C26.3754 28.4449 26.3663 28.4717 26.3581 28.496ZM4.74109 22.0847L4.76649 21.7581L4.64491 21.7582H4.64451C4.57914 21.7582 4.52368 21.7583 4.46822 21.7581L3.7524 21.7561L3.75178 21.7561L3.75115 21.7561C3.03502 21.754 2.31882 21.7519 1.60276 21.7507L1.59083 21.7506H1.59082H1.59082C1.50654 21.7504 1.42081 21.7501 1.33846 21.765C1.11608 21.8059 0.973574 21.9341 0.937484 22.1649C0.926604 22.235 0.915723 22.305 0.909885 22.3754L0.882481 22.7062L0.88248 22.7062L0.88248 22.7063C0.848525 23.115 0.814571 23.5236 0.784897 23.9328L0.76148 24.2554C0.695642 25.1619 0.629801 26.0684 0.572867 26.9753C0.500156 28.1333 0.390293 29.2848 0.0259412 30.3953C-0.0194369 30.5333 -0.0035148 30.653 0.0599084 30.7769L0.151964 30.9567L0.15215 30.9571L0.152368 30.9575C0.721829 32.0697 1.29133 33.182 1.85725 34.296C1.92996 34.439 2.0178 34.5237 2.20276 34.4749L2.40012 34.0975C2.56544 33.7816 2.73208 33.4632 2.89723 33.144C3.27565 32.4127 3.61346 31.6654 3.82682 30.8656C4.11103 29.8004 4.20948 28.7095 4.29626 27.6161C4.38718 26.4733 4.47971 25.3306 4.57224 24.1878L4.57225 24.1877L4.57232 24.1868L4.57246 24.1851L4.5726 24.1833C4.61553 23.6532 4.65845 23.1231 4.70121 22.593C4.71456 22.4275 4.72738 22.2619 4.74106 22.0852L4.74109 22.0847ZM12.9817 21.7842L12.9818 21.7842C13.0201 21.7782 13.054 21.7729 13.0879 21.7731C13.4017 21.7749 13.7155 21.7775 14.0294 21.7801L14.0294 21.7801C14.7496 21.7861 15.4697 21.792 16.1898 21.788C16.4318 21.7867 16.5634 21.8904 16.6107 22.0993C16.6629 22.3304 16.6924 22.5682 16.7118 22.8049C16.8354 24.3284 16.9543 25.8524 17.0729 27.3764C17.0899 27.5942 17.1051 27.8122 17.1203 28.0302L17.1203 28.0307C17.1463 28.4032 17.1723 28.7758 17.207 29.1475C17.2255 29.3465 17.2659 29.5527 17.3441 29.735C17.5291 30.1654 17.5413 30.5908 17.3781 31.0241C17.3253 31.1643 17.2635 31.302 17.1969 31.436C16.7489 32.3365 16.299 33.2363 15.8492 34.1358L15.8484 34.1375L15.7766 34.281C15.752 34.33 15.7257 34.3781 15.6969 34.4308C15.6808 34.4601 15.664 34.4908 15.6463 34.5238C15.6261 34.5026 15.6082 34.4845 15.592 34.4683C15.5627 34.4387 15.5393 34.4152 15.5189 34.3893C14.6334 33.2601 14.0538 32.005 13.8944 30.5629C13.7966 29.6788 13.6888 28.7958 13.5809 27.9128C13.4949 27.2087 13.4089 26.5045 13.3281 25.7998C13.2201 24.8596 13.1209 23.9185 13.0217 22.9773L13.0217 22.9772L13.0216 22.9762C12.9838 22.6174 12.946 22.2587 12.9077 21.9C12.9057 21.8837 12.9082 21.867 12.912 21.8424C12.9141 21.8289 12.9166 21.8129 12.9189 21.7933C12.9414 21.7905 12.9621 21.7873 12.9817 21.7842ZM24.9506 32.528C24.9599 32.5039 24.9697 32.4782 24.981 32.4505C24.9482 32.448 24.9186 32.4451 24.8909 32.4424C24.8403 32.4374 24.7965 32.4332 24.7526 32.433C24.2401 32.4327 23.7277 32.4327 23.2153 32.4327C21.9856 32.4328 20.7558 32.4329 19.5261 32.4282C19.3481 32.4274 19.261 32.4914 19.1825 32.6456C18.824 33.3499 18.4603 34.0515 18.0966 34.7531C17.9396 35.0559 17.7826 35.3587 17.6261 35.6617C17.6031 35.7064 17.5837 35.753 17.5601 35.81C17.5476 35.8403 17.5338 35.8737 17.5175 35.9112C17.5752 35.9269 17.6307 35.9455 17.6847 35.9636C17.7977 36.0014 17.9044 36.0371 18.0119 36.0402C18.8422 36.0638 19.6725 36.0833 20.5028 36.1027C21.2457 36.1201 21.9887 36.1376 22.7315 36.158C22.9892 36.1651 23.1391 36.0616 23.253 35.8387C23.6147 35.1304 23.9808 34.4242 24.3468 33.718C24.5298 33.3648 24.7128 33.0117 24.8953 32.6583C24.9159 32.6185 24.932 32.5764 24.9506 32.528Z" fill="black"/>
</svg>
